icons/smoking_fill.svg

<svg width="48" height="48" viewBox="0 0 48 48" fill="none" xmlns="http://www.w3.org/2000/svg">
<path d="M37 11C37 10.4477 37.4477 10 38 10C40.7614 10 43 12.2386 43 15V16.5909C43 17.979 42.3585 19.2173 41.3559 20.0255C42.9512 21.1039 44 22.9294 44 25V28C44 28.5523 43.5523 29 43 29C42.4477 29 42 28.5523 42 28V25C42 22.7909 40.2091 21 38 21C37.4477 21 37 20.5523 37 20C37 19.4477 37.4477 19 38 19H38.5909C39.9214 19 41 17.9214 41 16.5909V15C41 13.3431 39.6569 12 38 12C37.4477 12 37 11.5523 37 11Z" fill="black"/>
<path d="M34 17C32.3431 17 31 18.3431 31 20V21.8182C31 23.475 32.3431 24.8182 34 24.8182H37C38.6569 24.8182 40 26.1613 40 27.8182V28C40 28.5523 39.5523 29 39 29C38.4477 29 38 28.5523 38 28V27.8182C38 27.2659 37.5523 26.8182 37 26.8182H34C31.2386 26.8182 29 24.5796 29 21.8182V20C29 17.2386 31.2386 15 34 15C34.5523 15 35 15.4477 35 16C35 16.5523 34.5523 17 34 17Z" fill="black"/>
<path d="M7 31C5.89543 31 5 31.8954 5 33V35C5 36.1046 5.89543 37 7 37H34C35.1046 37 36 36.1046 36 35V33C36 31.8954 35.1046 31 34 31H7Z" fill="black"/>
<path d="M40 32C40 31.4477 39.5523 31 39 31C38.4477 31 38 31.4477 38 32V36C38 36.5523 38.4477 37 39 37C39.5523 37 40 36.5523 40 36V32Z" fill="black"/>
<path d="M44 32C44 31.4477 43.5523 31 43 31C42.4477 31 42 31.4477 42 32V36C42 36.5523 42.4477 37 43 37C43.5523 37 44 36.5523 44 36V32Z" fill="black"/>
</svg>

<svg
  xmlns="http://www.w3.org/2000/svg"
  width="24"
  height="24"
  viewBox="0 0 24 24"
  fill="none"
  stroke="currentColor"
  stroke-width="2"
  stroke-linecap="round"
  stroke-linejoin="round"
>
  <path d="M37 11a1 1 0 0 1 1-1 5 5 0 0 1 5 5v1.59a4.4 4.4 0 0 1-1.644 3.436A6 6 0 0 1 44 25v3a1 1 0 1 1-2 0v-3a4 4 0 0 0-4-4 1 1 0 1 1 0-2h.59A2.41 2.41 0 0 0 41 16.59V15a3 3 0 0 0-3-3 1 1 0 0 1-1-1" />
  <path d="M34 17a3 3 0 0 0-3 3v1.818a3 3 0 0 0 3 3h3a3 3 0 0 1 3 3V28a1 1 0 1 1-2 0v-.182a1 1 0 0 0-1-1h-3a5 5 0 0 1-5-5V20a5 5 0 0 1 5-5 1 1 0 1 1 0 2" />
  <path d="M7 31a2 2 0 0 0-2 2v2a2 2 0 0 0 2 2h27a2 2 0 0 0 2-2v-2a2 2 0 0 0-2-2z" />
  <path d="M40 32a1 1 0 1 0-2 0v4a1 1 0 1 0 2 0z" />
  <path d="M44 32a1 1 0 1 0-2 0v4a1 1 0 1 0 2 0z" />
</svg>
